tools/fcr-reference/vectors/lut_cineon_rec709.cube
TITLE "cineon_rec709"
LUT_3D_SIZE 9
DOMAIN_MIN 0.0 0.0 0.0
DOMAIN_MAX 1.0 1.0 1.0
0.000000 0.000000 0.000000
0.014098 0.000000 0.000000
0.115775 0.000000 0.000000
0.271233 0.000000 0.000000
0.496263 0.000000 0.000000
0.837836 0.000000 0.000000
1.000000 0.000000 0.000000
1.000000 0.000000 0.000000
1.000000 0.000000 0.000000
0.000000 0.014098 0.000000
0.014098 0.014098 0.000000
0.115775 0.014098 0.000000
0.271233 0.014098 0.000000
0.496263 0.014098 0.000000
0.837836 0.014098 0.000000
1.000000 0.014098 0.000000
1.000000 0.014098 0.000000
1.000000 0.014098 0.000000
0.000000 0.115775 0.000000
0.014098 0.115775 0.000000
0.115775 0.115775 0.000000
0.271233 0.115775 0.000000
0.496263 0.115775 0.000000
0.837836 0.115775 0.000000
1.000000 0.115775 0.000000
1.000000 0.115775 0.000000
1.000000 0.115775 0.000000
0.000000 0.271233 0.000000
0.014098 0.271233 0.000000
0.115775 0.271233 0.000000
0.271233 0.271233 0.000000
0.496263 0.271233 0.000000
0.837836 0.271233 0.000000
1.000000 0.271233 0.000000
1.000000 0.271233 0.000000
1.000000 0.271233 0.000000
0.000000 0.496263 0.000000
0.014098 0.496263 0.000000
0.115775 0.496263 0.000000
0.271233 0.496263 0.000000
0.496263 0.496263 0.000000
0.837836 0.496263 0.000000
1.000000 0.496263 0.000000
1.000000 0.496263 0.000000
1.000000 0.496263 0.000000
0.000000 0.837836 0.000000
0.014098 0.837836 0.000000
0.115775 0.837836 0.000000
0.271233 0.837836 0.000000
0.496263 0.837836 0.000000
0.837836 0.837836 0.000000
1.000000 0.837836 0.000000
1.000000 0.837836 0.000000
1.000000 0.837836 0.000000
0.000000 1.000000 0.000000
0.014098 1.000000 0.000000
0.115775 1.000000 0.000000
0.271233 1.000000 0.000000
0.496263 1.000000 0.000000
0.837836 1.000000 0.000000
1.000000 1.000000 0.000000
1.000000 1.000000 0.000000
1.000000 1.000000 0.000000
0.000000 1.000000 0.000000
0.014098 1.000000 0.000000
0.115775 1.000000 0.000000
0.271233 1.000000 0.000000
0.496263 1.000000 0.000000
0.837836 1.000000 0.000000
1.000000 1.000000 0.000000
1.000000 1.000000 0.000000
1.000000 1.000000 0.000000
0.000000 1.000000 0.000000
0.014098 1.000000 0.000000
0.115775 1.000000 0.000000
0.271233 1.000000 0.000000
0.496263 1.000000 0.000000
0.837836 1.000000 0.000000
1.000000 1.000000 0.000000
1.000000 1.000000 0.000000
1.000000 1.000000 0.000000
0.000000 0.000000 0.014098
0.014098 0.000000 0.014098
0.115775 0.000000 0.014098
0.271233 0.000000 0.014098
0.496263 0.000000 0.014098
0.837836 0.000000 0.014098
1.000000 0.000000 0.014098
1.000000 0.000000 0.014098
1.000000 0.000000 0.014098
0.000000 0.014098 0.014098
0.014098 0.014098 0.014098
0.115775 0.014098 0.014098
0.271233 0.014098 0.014098
0.496263 0.014098 0.014098
0.837836 0.014098 0.014098
1.000000 0.014098 0.014098
1.000000 0.014098 0.014098
1.000000 0.014098 0.014098
0.000000 0.115775 0.014098
0.014098 0.115775 0.014098
0.115775 0.115775 0.014098
0.271233 0.115775 0.014098
0.496263 0.115775 0.014098
0.837836 0.115775 0.014098
1.000000 0.115775 0.014098
1.000000 0.115775 0.014098
1.000000 0.115775 0.014098
0.000000 0.271233 0.014098
0.014098 0.271233 0.014098
0.115775 0.271233 0.014098
0.271233 0.271233 0.014098
0.496263 0.271233 0.014098
0.837836 0.271233 0.014098
1.000000 0.271233 0.014098
1.000000 0.271233 0.014098
1.000000 0.271233 0.014098
0.000000 0.496263 0.014098
0.014098 0.496263 0.014098
0.115775 0.496263 0.014098
0.271233 0.496263 0.014098
0.496263 0.496263 0.014098
0.837836 0.496263 0.014098
1.000000 0.496263 0.014098
1.000000 0.496263 0.014098
1.000000 0.496263 0.014098
0.000000 0.837836 0.014098
0.014098 0.837836 0.014098
0.115775 0.837836 0.014098
0.271233 0.837836 0.014098
0.496263 0.837836 0.014098
0.837836 0.837836 0.014098
1.000000 0.837836 0.014098
1.000000 0.837836 0.014098
1.000000 0.837836 0.014098
0.000000 1.000000 0.014098
0.014098 1.000000 0.014098
0.115775 1.000000 0.014098
0.271233 1.000000 0.014098
0.496263 1.000000 0.014098
0.837836 1.000000 0.014098
1.000000 1.000000 0.014098
1.000000 1.000000 0.014098
1.000000 1.000000 0.014098
0.000000 1.000000 0.014098
0.014098 1.000000 0.014098
0.115775 1.000000 0.014098
0.271233 1.000000 0.014098
0.496263 1.000000 0.014098
0.837836 1.000000 0.014098
1.000000 1.000000 0.014098
1.000000 1.000000 0.014098
1.000000 1.000000 0.014098
0.000000 1.000000 0.014098
0.014098 1.000000 0.014098
0.115775 1.000000 0.014098
0.271233 1.000000 0.014098
0.496263 1.000000 0.014098
0.837836 1.000000 0.014098
1.000000 1.000000 0.014098
1.000000 1.000000 0.014098
1.000000 1.000000 0.014098
0.000000 0.000000 0.115775
0.014098 0.000000 0.115775
0.115775 0.000000 0.115775
0.271233 0.000000 0.115775
0.496263 0.000000 0.115775
0.837836 0.000000 0.115775
1.000000 0.000000 0.115775
1.000000 0.000000 0.115775
1.000000 0.000000 0.115775
0.000000 0.014098 0.115775
0.014098 0.014098 0.115775
0.115775 0.014098 0.115775
0.271233 0.014098 0.115775
0.496263 0.014098 0.115775
0.837836 0.014098 0.115775
1.000000 0.014098 0.115775
1.000000 0.014098 0.115775
1.000000 0.014098 0.115775
0.000000 0.115775 0.115775
0.014098 0.115775 0.115775
0.115775 0.115775 0.115775
0.271233 0.115775 0.115775
0.496263 0.115775 0.115775
0.837836 0.115775 0.115775
1.000000 0.115775 0.115775
1.000000 0.115775 0.115775
1.000000 0.115775 0.115775
0.000000 0.271233 0.115775
0.014098 0.271233 0.115775
0.115775 0.271233 0.115775
0.271233 0.271233 0.115775
0.496263 0.271233 0.115775
0.837836 0.271233 0.115775
1.000000 0.271233 0.115775
1.000000 0.271233 0.115775
1.000000 0.271233 0.115775
0.000000 0.496263 0.115775
0.014098 0.496263 0.115775
0.115775 0.496263 0.115775
0.271233 0.496263 0.115775
0.496263 0.496263 0.115775
0.837836 0.496263 0.115775
1.000000 0.496263 0.115775
1.000000 0.496263 0.115775
1.000000 0.496263 0.115775
0.000000 0.837836 0.115775
0.014098 0.837836 0.115775
0.115775 0.837836 0.115775
0.271233 0.837836 0.115775
0.496263 0.837836 0.115775
0.837836 0.837836 0.115775
1.000000 0.837836 0.115775
1.000000 0.837836 0.115775
1.000000 0.837836 0.115775
0.000000 1.000000 0.115775
0.014098 1.000000 0.115775
0.115775 1.000000 0.115775
0.271233 1.000000 0.115775
0.496263 1.000000 0.115775
0.837836 1.000000 0.115775
1.000000 1.000000 0.115775
1.000000 1.000000 0.115775
1.000000 1.000000 0.115775
0.000000 1.000000 0.115775
0.014098 1.000000 0.115775
0.115775 1.000000 0.115775
0.271233 1.000000 0.115775
0.496263 1.000000 0.115775
0.837836 1.000000 0.115775
1.000000 1.000000 0.115775
1.000000 1.000000 0.115775
1.000000 1.000000 0.115775
0.000000 1.000000 0.115775
0.014098 1.000000 0.115775
0.115775 1.000000 0.115775
0.271233 1.000000 0.115775
0.496263 1.000000 0.115775
0.837836 1.000000 0.115775
1.000000 1.000000 0.115775
1.000000 1.000000 0.115775
1.000000 1.000000 0.115775
0.000000 0.000000 0.271233
0.014098 0.000000 0.271233
0.115775 0.000000 0.271233
0.271233 0.000000 0.271233
0.496263 0.000000 0.271233
0.837836 0.000000 0.271233
1.000000 0.000000 0.271233
1.000000 0.000000 0.271233
1.000000 0.000000 0.271233
0.000000 0.014098 0.271233
0.014098 0.014098 0.271233
0.115775 0.014098 0.271233
0.271233 0.014098 0.271233
0.496263 0.014098 0.271233
0.837836 0.014098 0.271233
1.000000 0.014098 0.271233
1.000000 0.014098 0.271233
1.000000 0.014098 0.271233
0.000000 0.115775 0.271233
0.014098 0.115775 0.271233
0.115775 0.115775 0.271233
0.271233 0.115775 0.271233
0.496263 0.115775 0.271233
0.837836 0.115775 0.271233
1.000000 0.115775 0.271233
1.000000 0.115775 0.271233
1.000000 0.115775 0.271233
0.000000 0.271233 0.271233
0.014098 0.271233 0.271233
0.115775 0.271233 0.271233
0.271233 0.271233 0.271233
0.496263 0.271233 0.271233
0.837836 0.271233 0.271233
1.000000 0.271233 0.271233
1.000000 0.271233 0.271233
1.000000 0.271233 0.271233
0.000000 0.496263 0.271233
0.014098 0.496263 0.271233
0.115775 0.496263 0.271233
0.271233 0.496263 0.271233
0.496263 0.496263 0.271233
0.837836 0.496263 0.271233
1.000000 0.496263 0.271233
1.000000 0.496263 0.271233
1.000000 0.496263 0.271233
0.000000 0.837836 0.271233
0.014098 0.837836 0.271233
0.115775 0.837836 0.271233
0.271233 0.837836 0.271233
0.496263 0.837836 0.271233
0.837836 0.837836 0.271233
1.000000 0.837836 0.271233
1.000000 0.837836 0.271233
1.000000 0.837836 0.271233
0.000000 1.000000 0.271233
0.014098 1.000000 0.271233
0.115775 1.000000 0.271233
0.271233 1.000000 0.271233
0.496263 1.000000 0.271233
0.837836 1.000000 0.271233
1.000000 1.000000 0.271233
1.000000 1.000000 0.271233
1.000000 1.000000 0.271233
0.000000 1.000000 0.271233
0.014098 1.000000 0.271233
0.115775 1.000000 0.271233
0.271233 1.000000 0.271233
0.496263 1.000000 0.271233
0.837836 1.000000 0.271233
1.000000 1.000000 0.271233
1.000000 1.000000 0.271233
1.000000 1.000000 0.271233
0.000000 1.000000 0.271233
0.014098 1.000000 0.271233
0.115775 1.000000 0.271233
0.271233 1.000000 0.271233
0.496263 1.000000 0.271233
0.837836 1.000000 0.271233
1.000000 1.000000 0.271233
1.000000 1.000000 0.271233
1.000000 1.000000 0.271233
0.000000 0.000000 0.496263
0.014098 0.000000 0.496263
0.115775 0.000000 0.496263
0.271233 0.000000 0.496263
0.496263 0.000000 0.496263
0.837836 0.000000 0.496263
1.000000 0.000000 0.496263
1.000000 0.000000 0.496263
1.000000 0.000000 0.496263
0.000000 0.014098 0.496263
0.014098 0.014098 0.496263
0.115775 0.014098 0.496263
0.271233 0.014098 0.496263
0.496263 0.014098 0.496263
0.837836 0.014098 0.496263
1.000000 0.014098 0.496263
1.000000 0.014098 0.496263
1.000000 0.014098 0.496263
0.000000 0.115775 0.496263
0.014098 0.115775 0.496263
0.115775 0.115775 0.496263
0.271233 0.115775 0.496263
0.496263 0.115775 0.496263
0.837836 0.115775 0.496263
1.000000 0.115775 0.496263
1.000000 0.115775 0.496263
1.000000 0.115775 0.496263
0.000000 0.271233 0.496263
0.014098 0.271233 0.496263
0.115775 0.271233 0.496263
0.271233 0.271233 0.496263
0.496263 0.271233 0.496263
0.837836 0.271233 0.496263
1.000000 0.271233 0.496263
1.000000 0.271233 0.496263
1.000000 0.271233 0.496263
0.000000 0.496263 0.496263
0.014098 0.496263 0.496263
0.115775 0.496263 0.496263
0.271233 0.496263 0.496263
0.496263 0.496263 0.496263
0.837836 0.496263 0.496263
1.000000 0.496263 0.496263
1.000000 0.496263 0.496263
1.000000 0.496263 0.496263
0.000000 0.837836 0.496263
0.014098 0.837836 0.496263
0.115775 0.837836 0.496263
0.271233 0.837836 0.496263
0.496263 0.837836 0.496263
0.837836 0.837836 0.496263
1.000000 0.837836 0.496263
1.000000 0.837836 0.496263
1.000000 0.837836 0.496263
0.000000 1.000000 0.496263
0.014098 1.000000 0.496263
0.115775 1.000000 0.496263
0.271233 1.000000 0.496263
0.496263 1.000000 0.496263
0.837836 1.000000 0.496263
1.000000 1.000000 0.496263
1.000000 1.000000 0.496263
1.000000 1.000000 0.496263
0.000000 1.000000 0.496263
0.014098 1.000000 0.496263
0.115775 1.000000 0.496263
0.271233 1.000000 0.496263
0.496263 1.000000 0.496263
0.837836 1.000000 0.496263
1.000000 1.000000 0.496263
1.000000 1.000000 0.496263
1.000000 1.000000 0.496263
0.000000 1.000000 0.496263
0.014098 1.000000 0.496263
0.115775 1.000000 0.496263
0.271233 1.000000 0.496263
0.496263 1.000000 0.496263
0.837836 1.000000 0.496263
1.000000 1.000000 0.496263
1.000000 1.000000 0.496263
1.000000 1.000000 0.496263
0.000000 0.000000 0.837836
0.014098 0.000000 0.837836
0.115775 0.000000 0.837836
0.271233 0.000000 0.837836
0.496263 0.000000 0.837836
0.837836 0.000000 0.837836
1.000000 0.000000 0.837836
1.000000 0.000000 0.837836
1.000000 0.000000 0.837836
0.000000 0.014098 0.837836
0.014098 0.014098 0.837836
0.115775 0.014098 0.837836
0.271233 0.014098 0.837836
0.496263 0.014098 0.837836
0.837836 0.014098 0.837836
1.000000 0.014098 0.837836
1.000000 0.014098 0.837836
1.000000 0.014098 0.837836
0.000000 0.115775 0.837836
0.014098 0.115775 0.837836
0.115775 0.115775 0.837836
0.271233 0.115775 0.837836
0.496263 0.115775 0.837836
0.837836 0.115775 0.837836
1.000000 0.115775 0.837836
1.000000 0.115775 0.837836
1.000000 0.115775 0.837836
0.000000 0.271233 0.837836
0.014098 0.271233 0.837836
0.115775 0.271233 0.837836
0.271233 0.271233 0.837836
0.496263 0.271233 0.837836
0.837836 0.271233 0.837836
1.000000 0.271233 0.837836
1.000000 0.271233 0.837836
1.000000 0.271233 0.837836
0.000000 0.496263 0.837836
0.014098 0.496263 0.837836
0.115775 0.496263 0.837836
0.271233 0.496263 0.837836
0.496263 0.496263 0.837836
0.837836 0.496263 0.837836
1.000000 0.496263 0.837836
1.000000 0.496263 0.837836
1.000000 0.496263 0.837836
0.000000 0.837836 0.837836
0.014098 0.837836 0.837836
0.115775 0.837836 0.837836
0.271233 0.837836 0.837836
0.496263 0.837836 0.837836
0.837836 0.837836 0.837836
1.000000 0.837836 0.837836
1.000000 0.837836 0.837836
1.000000 0.837836 0.837836
0.000000 1.000000 0.837836
0.014098 1.000000 0.837836
0.115775 1.000000 0.837836
0.271233 1.000000 0.837836
0.496263 1.000000 0.837836
0.837836 1.000000 0.837836
1.000000 1.000000 0.837836
1.000000 1.000000 0.837836
1.000000 1.000000 0.837836
0.000000 1.000000 0.837836
0.014098 1.000000 0.837836
0.115775 1.000000 0.837836
0.271233 1.000000 0.837836
0.496263 1.000000 0.837836
0.837836 1.000000 0.837836
1.000000 1.000000 0.837836
1.000000 1.000000 0.837836
1.000000 1.000000 0.837836
0.000000 1.000000 0.837836
0.014098 1.000000 0.837836
0.115775 1.000000 0.837836
0.271233 1.000000 0.837836
0.496263 1.000000 0.837836
0.837836 1.000000 0.837836
1.000000 1.000000 0.837836
1.000000 1.000000 0.837836
1.000000 1.000000 0.837836
0.000000 0.000000 1.000000
0.014098 0.000000 1.000000
0.115775 0.000000 1.000000
0.271233 0.000000 1.000000
0.496263 0.000000 1.000000
0.837836 0.000000 1.000000
1.000000 0.000000 1.000000
1.000000 0.000000 1.000000
1.000000 0.000000 1.000000
0.000000 0.014098 1.000000
0.014098 0.014098 1.000000
0.115775 0.014098 1.000000
0.271233 0.014098 1.000000
0.496263 0.014098 1.000000
0.837836 0.014098 1.000000
1.000000 0.014098 1.000000
1.000000 0.014098 1.000000
1.000000 0.014098 1.000000
0.000000 0.115775 1.000000
0.014098 0.115775 1.000000
0.115775 0.115775 1.000000
0.271233 0.115775 1.000000
0.496263 0.115775 1.000000
0.837836 0.115775 1.000000
1.000000 0.115775 1.000000
1.000000 0.115775 1.000000
1.000000 0.115775 1.000000
0.000000 0.271233 1.000000
0.014098 0.271233 1.000000
0.115775 0.271233 1.000000
0.271233 0.271233 1.000000
0.496263 0.271233 1.000000
0.837836 0.271233 1.000000
1.000000 0.271233 1.000000
1.000000 0.271233 1.000000
1.000000 0.271233 1.000000
0.000000 0.496263 1.000000
0.014098 0.496263 1.000000
0.115775 0.496263 1.000000
0.271233 0.496263 1.000000
0.496263 0.496263 1.000000
0.837836 0.496263 1.000000
1.000000 0.496263 1.000000
1.000000 0.496263 1.000000
1.000000 0.496263 1.000000
0.000000 0.837836 1.000000
0.014098 0.837836 1.000000
0.115775 0.837836 1.000000
0.271233 0.837836 1.000000
0.496263 0.837836 1.000000
0.837836 0.837836 1.000000
1.000000 0.837836 1.000000
1.000000 0.837836 1.000000
1.000000 0.837836 1.000000
0.000000 1.000000 1.000000
0.014098 1.000000 1.000000
0.115775 1.000000 1.000000
0.271233 1.000000 1.000000
0.496263 1.000000 1.000000
0.837836 1.000000 1.000000
1.000000 1.000000 1.000000
1.000000 1.000000 1.000000
1.000000 1.000000 1.000000
0.000000 1.000000 1.000000
0.014098 1.000000 1.000000
0.115775 1.000000 1.000000
0.271233 1.000000 1.000000
0.496263 1.000000 1.000000
0.837836 1.000000 1.000000
1.000000 1.000000 1.000000
1.000000 1.000000 1.000000
1.000000 1.000000 1.000000
0.000000 1.000000 1.000000
0.014098 1.000000 1.000000
0.115775 1.000000 1.000000
0.271233 1.000000 1.000000
0.496263 1.000000 1.000000
0.837836 1.000000 1.000000
1.000000 1.000000 1.000000
1.000000 1.000000 1.000000
1.000000 1.000000 1.000000
0.000000 0.000000 1.000000
0.014098 0.000000 1.000000
0.115775 0.000000 1.000000
0.271233 0.000000 1.000000
0.496263 0.000000 1.000000
0.837836 0.000000 1.000000
1.000000 0.000000 1.000000
1.000000 0.000000 1.000000
1.000000 0.000000 1.000000
0.000000 0.014098 1.000000
0.014098 0.014098 1.000000
0.115775 0.014098 1.000000
0.271233 0.014098 1.000000
0.496263 0.014098 1.000000
0.837836 0.014098 1.000000
1.000000 0.014098 1.000000
1.000000 0.014098 1.000000
1.000000 0.014098 1.000000
0.000000 0.115775 1.000000
0.014098 0.115775 1.000000
0.115775 0.115775 1.000000
0.271233 0.115775 1.000000
0.496263 0.115775 1.000000
0.837836 0.115775 1.000000
1.000000 0.115775 1.000000
1.000000 0.115775 1.000000
1.000000 0.115775 1.000000
0.000000 0.271233 1.000000
0.014098 0.271233 1.000000
0.115775 0.271233 1.000000
0.271233 0.271233 1.000000
0.496263 0.271233 1.000000
0.837836 0.271233 1.000000
1.000000 0.271233 1.000000
1.000000 0.271233 1.000000
1.000000 0.271233 1.000000
0.000000 0.496263 1.000000
0.014098 0.496263 1.000000
0.115775 0.496263 1.000000
0.271233 0.496263 1.000000
0.496263 0.496263 1.000000
0.837836 0.496263 1.000000
1.000000 0.496263 1.000000
1.000000 0.496263 1.000000
1.000000 0.496263 1.000000
0.000000 0.837836 1.000000
0.014098 0.837836 1.000000
0.115775 0.837836 1.000000
0.271233 0.837836 1.000000
0.496263 0.837836 1.000000
0.837836 0.837836 1.000000
1.000000 0.837836 1.000000
1.000000 0.837836 1.000000
1.000000 0.837836 1.000000
0.000000 1.000000 1.000000
0.014098 1.000000 1.000000
0.115775 1.000000 1.000000
0.271233 1.000000 1.000000
0.496263 1.000000 1.000000
0.837836 1.000000 1.000000
1.000000 1.000000 1.000000
1.000000 1.000000 1.000000
1.000000 1.000000 1.000000
0.000000 1.000000 1.000000
0.014098 1.000000 1.000000
0.115775 1.000000 1.000000
0.271233 1.000000 1.000000
0.496263 1.000000 1.000000
0.837836 1.000000 1.000000
1.000000 1.000000 1.000000
1.000000 1.000000 1.000000
1.000000 1.000000 1.000000
0.000000 1.000000 1.000000
0.014098 1.000000 1.000000
0.115775 1.000000 1.000000
0.271233 1.000000 1.000000
0.496263 1.000000 1.000000
0.837836 1.000000 1.000000
1.000000 1.000000 1.000000
1.000000 1.000000 1.000000
1.000000 1.000000 1.000000
0.000000 0.000000 1.000000
0.014098 0.000000 1.000000
0.115775 0.000000 1.000000
0.271233 0.000000 1.000000
0.496263 0.000000 1.000000
0.837836 0.000000 1.000000
1.000000 0.000000 1.000000
1.000000 0.000000 1.000000
1.000000 0.000000 1.000000
0.000000 0.014098 1.000000
0.014098 0.014098 1.000000
0.115775 0.014098 1.000000
0.271233 0.014098 1.000000
0.496263 0.014098 1.000000
0.837836 0.014098 1.000000
1.000000 0.014098 1.000000
1.000000 0.014098 1.000000
1.000000 0.014098 1.000000
0.000000 0.115775 1.000000
0.014098 0.115775 1.000000
0.115775 0.115775 1.000000
0.271233 0.115775 1.000000
0.496263 0.115775 1.000000
0.837836 0.115775 1.000000
1.000000 0.115775 1.000000
1.000000 0.115775 1.000000
1.000000 0.115775 1.000000
0.000000 0.271233 1.000000
0.014098 0.271233 1.000000
0.115775 0.271233 1.000000
0.271233 0.271233 1.000000
0.496263 0.271233 1.000000
0.837836 0.271233 1.000000
1.000000 0.271233 1.000000
1.000000 0.271233 1.000000
1.000000 0.271233 1.000000
0.000000 0.496263 1.000000
0.014098 0.496263 1.000000
0.115775 0.496263 1.000000
0.271233 0.496263 1.000000
0.496263 0.496263 1.000000
0.837836 0.496263 1.000000
1.000000 0.496263 1.000000
1.000000 0.496263 1.000000
1.000000 0.496263 1.000000
0.000000 0.837836 1.000000
0.014098 0.837836 1.000000
0.115775 0.837836 1.000000
0.271233 0.837836 1.000000
0.496263 0.837836 1.000000
0.837836 0.837836 1.000000
1.000000 0.837836 1.000000
1.000000 0.837836 1.000000
1.000000 0.837836 1.000000
0.000000 1.000000 1.000000
0.014098 1.000000 1.000000
0.115775 1.000000 1.000000
0.271233 1.000000 1.000000
0.496263 1.000000 1.000000
0.837836 1.000000 1.000000
1.000000 1.000000 1.000000
1.000000 1.000000 1.000000
1.000000 1.000000 1.000000
0.000000 1.000000 1.000000
0.014098 1.000000 1.000000
0.115775 1.000000 1.000000
0.271233 1.000000 1.000000
0.496263 1.000000 1.000000
0.837836 1.000000 1.000000
1.000000 1.000000 1.000000
1.000000 1.000000 1.000000
1.000000 1.000000 1.000000
0.000000 1.000000 1.000000
0.014098 1.000000 1.000000
0.115775 1.000000 1.000000
0.271233 1.000000 1.000000
0.496263 1.000000 1.000000
0.837836 1.000000 1.000000
1.000000 1.000000 1.000000
1.000000 1.000000 1.000000
1.000000 1.000000 1.000000
