tools/fcr-reference/vectors/lut_rec709.cube
TITLE "rec709"
LUT_3D_SIZE 17
DOMAIN_MIN 0.0 0.0 0.0
DOMAIN_MAX 1.0 1.0 1.0
0.000000 0.000000 0.000000
0.216605 0.000000 0.000000
0.332129 0.000000 0.000000
0.418426 0.000000 0.000000
0.489940 0.000000 0.000000
0.552149 0.000000 0.000000
0.607825 0.000000 0.000000
0.658596 0.000000 0.000000
0.705515 0.000000 0.000000
0.749307 0.000000 0.000000
0.790495 0.000000 0.000000
0.829475 0.000000 0.000000
0.866551 0.000000 0.000000
0.901963 0.000000 0.000000
0.935907 0.000000 0.000000
0.968541 0.000000 0.000000
1.000000 0.000000 0.000000
0.000000 0.216605 0.000000
0.216605 0.216605 0.000000
0.332129 0.216605 0.000000
0.418426 0.216605 0.000000
0.489940 0.216605 0.000000
0.552149 0.216605 0.000000
0.607825 0.216605 0.000000
0.658596 0.216605 0.000000
0.705515 0.216605 0.000000
0.749307 0.216605 0.000000
0.790495 0.216605 0.000000
0.829475 0.216605 0.000000
0.866551 0.216605 0.000000
0.901963 0.216605 0.000000
0.935907 0.216605 0.000000
0.968541 0.216605 0.000000
1.000000 0.216605 0.000000
0.000000 0.332129 0.000000
0.216605 0.332129 0.000000
0.332129 0.332129 0.000000
0.418426 0.332129 0.000000
0.489940 0.332129 0.000000
0.552149 0.332129 0.000000
0.607825 0.332129 0.000000
0.658596 0.332129 0.000000
0.705515 0.332129 0.000000
0.749307 0.332129 0.000000
0.790495 0.332129 0.000000
0.829475 0.332129 0.000000
0.866551 0.332129 0.000000
0.901963 0.332129 0.000000
0.935907 0.332129 0.000000
0.968541 0.332129 0.000000
1.000000 0.332129 0.000000
0.000000 0.418426 0.000000
0.216605 0.418426 0.000000
0.332129 0.418426 0.000000
0.418426 0.418426 0.000000
0.489940 0.418426 0.000000
0.552149 0.418426 0.000000
0.607825 0.418426 0.000000
0.658596 0.418426 0.000000
0.705515 0.418426 0.000000
0.749307 0.418426 0.000000
0.790495 0.418426 0.000000
0.829475 0.418426 0.000000
0.866551 0.418426 0.000000
0.901963 0.418426 0.000000
0.935907 0.418426 0.000000
0.968541 0.418426 0.000000
1.000000 0.418426 0.000000
0.000000 0.489940 0.000000
0.216605 0.489940 0.000000
0.332129 0.489940 0.000000
0.418426 0.489940 0.000000
0.489940 0.489940 0.000000
0.552149 0.489940 0.000000
0.607825 0.489940 0.000000
0.658596 0.489940 0.000000
0.705515 0.489940 0.000000
0.749307 0.489940 0.000000
0.790495 0.489940 0.000000
0.829475 0.489940 0.000000
0.866551 0.489940 0.000000
0.901963 0.489940 0.000000
0.935907 0.489940 0.000000
0.968541 0.489940 0.000000
1.000000 0.489940 0.000000
0.000000 0.552149 0.000000
0.216605 0.552149 0.000000
0.332129 0.552149 0.000000
0.418426 0.552149 0.000000
0.489940 0.552149 0.000000
0.552149 0.552149 0.000000
0.607825 0.552149 0.000000
0.658596 0.552149 0.000000
0.705515 0.552149 0.000000
0.749307 0.552149 0.000000
0.790495 0.552149 0.000000
0.829475 0.552149 0.000000
0.866551 0.552149 0.000000
0.901963 0.552149 0.000000
0.935907 0.552149 0.000000
0.968541 0.552149 0.000000
1.000000 0.552149 0.000000
0.000000 0.607825 0.000000
0.216605 0.607825 0.000000
0.332129 0.607825 0.000000
0.418426 0.607825 0.000000
0.489940 0.607825 0.000000
0.552149 0.607825 0.000000
0.607825 0.607825 0.000000
0.658596 0.607825 0.000000
0.705515 0.607825 0.000000
0.749307 0.607825 0.000000
0.790495 0.607825 0.000000
0.829475 0.607825 0.000000
0.866551 0.607825 0.000000
0.901963 0.607825 0.000000
0.935907 0.607825 0.000000
0.968541 0.607825 0.000000
1.000000 0.607825 0.000000
0.000000 0.658596 0.000000
0.216605 0.658596 0.000000
0.332129 0.658596 0.000000
0.418426 0.658596 0.000000
0.489940 0.658596 0.000000
0.552149 0.658596 0.000000
0.607825 0.658596 0.000000
0.658596 0.658596 0.000000
0.705515 0.658596 0.000000
0.749307 0.658596 0.000000
0.790495 0.658596 0.000000
0.829475 0.658596 0.000000
0.866551 0.658596 0.000000
0.901963 0.658596 0.000000
0.935907 0.658596 0.000000
0.968541 0.658596 0.000000
1.000000 0.658596 0.000000
0.000000 0.705515 0.000000
0.216605 0.705515 0.000000
0.332129 0.705515 0.000000
0.418426 0.705515 0.000000
0.489940 0.705515 0.000000
0.552149 0.705515 0.000000
0.607825 0.705515 0.000000
0.658596 0.705515 0.000000
0.705515 0.705515 0.000000
0.749307 0.705515 0.000000
0.790495 0.705515 0.000000
0.829475 0.705515 0.000000
0.866551 0.705515 0.000000
0.901963 0.705515 0.000000
0.935907 0.705515 0.000000
0.968541 0.705515 0.000000
1.000000 0.705515 0.000000
0.000000 0.749307 0.000000
0.216605 0.749307 0.000000
0.332129 0.749307 0.000000
0.418426 0.749307 0.000000
0.489940 0.749307 0.000000
0.552149 0.749307 0.000000
0.607825 0.749307 0.000000
0.658596 0.749307 0.000000
0.705515 0.749307 0.000000
0.749307 0.749307 0.000000
0.790495 0.749307 0.000000
0.829475 0.749307 0.000000
0.866551 0.749307 0.000000
0.901963 0.749307 0.000000
0.935907 0.749307 0.000000
0.968541 0.749307 0.000000
1.000000 0.749307 0.000000
0.000000 0.790495 0.000000
0.216605 0.790495 0.000000
0.332129 0.790495 0.000000
0.418426 0.790495 0.000000
0.489940 0.790495 0.000000
0.552149 0.790495 0.000000
0.607825 0.790495 0.000000
0.658596 0.790495 0.000000
0.705515 0.790495 0.000000
0.749307 0.790495 0.000000
0.790495 0.790495 0.000000
0.829475 0.790495 0.000000
0.866551 0.790495 0.000000
0.901963 0.790495 0.000000
0.935907 0.790495 0.000000
0.968541 0.790495 0.000000
1.000000 0.790495 0.000000
0.000000 0.829475 0.000000
0.216605 0.829475 0.000000
0.332129 0.829475 0.000000
0.418426 0.829475 0.000000
0.489940 0.829475 0.000000
0.552149 0.829475 0.000000
0.607825 0.829475 0.000000
0.658596 0.829475 0.000000
0.705515 0.829475 0.000000
0.749307 0.829475 0.000000
0.790495 0.829475 0.000000
0.829475 0.829475 0.000000
0.866551 0.829475 0.000000
0.901963 0.829475 0.000000
0.935907 0.829475 0.000000
0.968541 0.829475 0.000000
1.000000 0.829475 0.000000
0.000000 0.866551 0.000000
0.216605 0.866551 0.000000
0.332129 0.866551 0.000000
0.418426 0.866551 0.000000
0.489940 0.866551 0.000000
0.552149 0.866551 0.000000
0.607825 0.866551 0.000000
0.658596 0.866551 0.000000
0.705515 0.866551 0.000000
0.749307 0.866551 0.000000
0.790495 0.866551 0.000000
0.829475 0.866551 0.000000
0.866551 0.866551 0.000000
0.901963 0.866551 0.000000
0.935907 0.866551 0.000000
0.968541 0.866551 0.000000
1.000000 0.866551 0.000000
0.000000 0.901963 0.000000
0.216605 0.901963 0.000000
0.332129 0.901963 0.000000
0.418426 0.901963 0.000000
0.489940 0.901963 0.000000
0.552149 0.901963 0.000000
0.607825 0.901963 0.000000
0.658596 0.901963 0.000000
0.705515 0.901963 0.000000
0.749307 0.901963 0.000000
0.790495 0.901963 0.000000
0.829475 0.901963 0.000000
0.866551 0.901963 0.000000
0.901963 0.901963 0.000000
0.935907 0.901963 0.000000
0.968541 0.901963 0.000000
1.000000 0.901963 0.000000
0.000000 0.935907 0.000000
0.216605 0.935907 0.000000
0.332129 0.935907 0.000000
0.418426 0.935907 0.000000
0.489940 0.935907 0.000000
0.552149 0.935907 0.000000
0.607825 0.935907 0.000000
0.658596 0.935907 0.000000
0.705515 0.935907 0.000000
0.749307 0.935907 0.000000
0.790495 0.935907 0.000000
0.829475 0.935907 0.000000
0.866551 0.935907 0.000000
0.901963 0.935907 0.000000
0.935907 0.935907 0.000000
0.968541 0.935907 0.000000
1.000000 0.935907 0.000000
0.000000 0.968541 0.000000
0.216605 0.968541 0.000000
0.332129 0.968541 0.000000
0.418426 0.968541 0.000000
0.489940 0.968541 0.000000
0.552149 0.968541 0.000000
0.607825 0.968541 0.000000
0.658596 0.968541 0.000000
0.705515 0.968541 0.000000
0.749307 0.968541 0.000000
0.790495 0.968541 0.000000
0.829475 0.968541 0.000000
0.866551 0.968541 0.000000
0.901963 0.968541 0.000000
0.935907 0.968541 0.000000
0.968541 0.968541 0.000000
1.000000 0.968541 0.000000
0.000000 1.000000 0.000000
0.216605 1.000000 0.000000
0.332129 1.000000 0.000000
0.418426 1.000000 0.000000
0.489940 1.000000 0.000000
0.552149 1.000000 0.000000
0.607825 1.000000 0.000000
0.658596 1.000000 0.000000
0.705515 1.000000 0.000000
0.749307 1.000000 0.000000
0.790495 1.000000 0.000000
0.829475 1.000000 0.000000
0.866551 1.000000 0.000000
0.901963 1.000000 0.000000
0.935907 1.000000 0.000000
0.968541 1.000000 0.000000
1.000000 1.000000 0.000000
0.000000 0.000000 0.216605
0.216605 0.000000 0.216605
0.332129 0.000000 0.216605
0.418426 0.000000 0.216605
0.489940 0.000000 0.216605
0.552149 0.000000 0.216605
0.607825 0.000000 0.216605
0.658596 0.000000 0.216605
0.705515 0.000000 0.216605
0.749307 0.000000 0.216605
0.790495 0.000000 0.216605
0.829475 0.000000 0.216605
0.866551 0.000000 0.216605
0.901963 0.000000 0.216605
0.935907 0.000000 0.216605
0.968541 0.000000 0.216605
1.000000 0.000000 0.216605
0.000000 0.216605 0.216605
0.216605 0.216605 0.216605
0.332129 0.216605 0.216605
0.418426 0.216605 0.216605
0.489940 0.216605 0.216605
0.552149 0.216605 0.216605
0.607825 0.216605 0.216605
0.658596 0.216605 0.216605
0.705515 0.216605 0.216605
0.749307 0.216605 0.216605
0.790495 0.216605 0.216605
0.829475 0.216605 0.216605
0.866551 0.216605 0.216605
0.901963 0.216605 0.216605
0.935907 0.216605 0.216605
0.968541 0.216605 0.216605
1.000000 0.216605 0.216605
0.000000 0.332129 0.216605
0.216605 0.332129 0.216605
0.332129 0.332129 0.216605
0.418426 0.332129 0.216605
0.489940 0.332129 0.216605
0.552149 0.332129 0.216605
0.607825 0.332129 0.216605
0.658596 0.332129 0.216605
0.705515 0.332129 0.216605
0.749307 0.332129 0.216605
0.790495 0.332129 0.216605
0.829475 0.332129 0.216605
0.866551 0.332129 0.216605
0.901963 0.332129 0.216605
0.935907 0.332129 0.216605
0.968541 0.332129 0.216605
1.000000 0.332129 0.216605
0.000000 0.418426 0.216605
0.216605 0.418426 0.216605
0.332129 0.418426 0.216605
0.418426 0.418426 0.216605
0.489940 0.418426 0.216605
0.552149 0.418426 0.216605
0.607825 0.418426 0.216605
0.658596 0.418426 0.216605
0.705515 0.418426 0.216605
0.749307 0.418426 0.216605
0.790495 0.418426 0.216605
0.829475 0.418426 0.216605
0.866551 0.418426 0.216605
0.901963 0.418426 0.216605
0.935907 0.418426 0.216605
0.968541 0.418426 0.216605
1.000000 0.418426 0.216605
0.000000 0.489940 0.216605
0.216605 0.489940 0.216605
0.332129 0.489940 0.216605
0.418426 0.489940 0.216605
0.489940 0.489940 0.216605
0.552149 0.489940 0.216605
0.607825 0.489940 0.216605
0.658596 0.489940 0.216605
0.705515 0.489940 0.216605
0.749307 0.489940 0.216605
0.790495 0.489940 0.216605
0.829475 0.489940 0.216605
0.866551 0.489940 0.216605
0.901963 0.489940 0.216605
0.935907 0.489940 0.216605
0.968541 0.489940 0.216605
1.000000 0.489940 0.216605
0.000000 0.552149 0.216605
0.216605 0.552149 0.216605
0.332129 0.552149 0.216605
0.418426 0.552149 0.216605
0.489940 0.552149 0.216605
0.552149 0.552149 0.216605
0.607825 0.552149 0.216605
0.658596 0.552149 0.216605
0.705515 0.552149 0.216605
0.749307 0.552149 0.216605
0.790495 0.552149 0.216605
0.829475 0.552149 0.216605
0.866551 0.552149 0.216605
0.901963 0.552149 0.216605
0.935907 0.552149 0.216605
0.968541 0.552149 0.216605
1.000000 0.552149 0.216605
0.000000 0.607825 0.216605
0.216605 0.607825 0.216605
0.332129 0.607825 0.216605
0.418426 0.607825 0.216605
0.489940 0.607825 0.216605
0.552149 0.607825 0.216605
0.607825 0.607825 0.216605
0.658596 0.607825 0.216605
0.705515 0.607825 0.216605
0.749307 0.607825 0.216605
0.790495 0.607825 0.216605
0.829475 0.607825 0.216605
0.866551 0.607825 0.216605
0.901963 0.607825 0.216605
0.935907 0.607825 0.216605
0.968541 0.607825 0.216605
1.000000 0.607825 0.216605
0.000000 0.658596 0.216605
0.216605 0.658596 0.216605
0.332129 0.658596 0.216605
0.418426 0.658596 0.216605
0.489940 0.658596 0.216605
0.552149 0.658596 0.216605
0.607825 0.658596 0.216605
0.658596 0.658596 0.216605
0.705515 0.658596 0.216605
0.749307 0.658596 0.216605
0.790495 0.658596 0.216605
0.829475 0.658596 0.216605
0.866551 0.658596 0.216605
0.901963 0.658596 0.216605
0.935907 0.658596 0.216605
0.968541 0.658596 0.216605
1.000000 0.658596 0.216605
0.000000 0.705515 0.216605
0.216605 0.705515 0.216605
0.332129 0.705515 0.216605
0.418426 0.705515 0.216605
0.489940 0.705515 0.216605
0.552149 0.705515 0.216605
0.607825 0.705515 0.216605
0.658596 0.705515 0.216605
0.705515 0.705515 0.216605
0.749307 0.705515 0.216605
0.790495 0.705515 0.216605
0.829475 0.705515 0.216605
0.866551 0.705515 0.216605
0.901963 0.705515 0.216605
0.935907 0.705515 0.216605
0.968541 0.705515 0.216605
1.000000 0.705515 0.216605
0.000000 0.749307 0.216605
0.216605 0.749307 0.216605
0.332129 0.749307 0.216605
0.418426 0.749307 0.216605
0.489940 0.749307 0.216605
0.552149 0.749307 0.216605
0.607825 0.749307 0.216605
0.658596 0.749307 0.216605
0.705515 0.749307 0.216605
0.749307 0.749307 0.216605
0.790495 0.749307 0.216605
0.829475 0.749307 0.216605
0.866551 0.749307 0.216605
0.901963 0.749307 0.216605
0.935907 0.749307 0.216605
0.968541 0.749307 0.216605
1.000000 0.749307 0.216605
0.000000 0.790495 0.216605
0.216605 0.790495 0.216605
0.332129 0.790495 0.216605
0.418426 0.790495 0.216605
0.489940 0.790495 0.216605
0.552149 0.790495 0.216605
0.607825 0.790495 0.216605
0.658596 0.790495 0.216605
0.705515 0.790495 0.216605
0.749307 0.790495 0.216605
0.790495 0.790495 0.216605
0.829475 0.790495 0.216605
0.866551 0.790495 0.216605
0.901963 0.790495 0.216605
0.935907 0.790495 0.216605
0.968541 0.790495 0.216605
1.000000 0.790495 0.216605
0.000000 0.829475 0.216605
0.216605 0.829475 0.216605
0.332129 0.829475 0.216605
0.418426 0.829475 0.216605
0.489940 0.829475 0.216605
0.552149 0.829475 0.216605
0.607825 0.829475 0.216605
0.658596 0.829475 0.216605
0.705515 0.829475 0.216605
0.749307 0.829475 0.216605
0.790495 0.829475 0.216605
0.829475 0.829475 0.216605
0.866551 0.829475 0.216605
0.901963 0.829475 0.216605
0.935907 0.829475 0.216605
0.968541 0.829475 0.216605
1.000000 0.829475 0.216605
0.000000 0.866551 0.216605
0.216605 0.866551 0.216605
0.332129 0.866551 0.216605
0.418426 0.866551 0.216605
0.489940 0.866551 0.216605
0.552149 0.866551 0.216605
0.607825 0.866551 0.216605
0.658596 0.866551 0.216605
0.705515 0.866551 0.216605
0.749307 0.866551 0.216605
0.790495 0.866551 0.216605
0.829475 0.866551 0.216605
0.866551 0.866551 0.216605
0.901963 0.866551 0.216605
0.935907 0.866551 0.216605
0.968541 0.866551 0.216605
1.000000 0.866551 0.216605
0.000000 0.901963 0.216605
0.216605 0.901963 0.216605
0.332129 0.901963 0.216605
0.418426 0.901963 0.216605
0.489940 0.901963 0.216605
0.552149 0.901963 0.216605
0.607825 0.901963 0.216605
0.658596 0.901963 0.216605
0.705515 0.901963 0.216605
0.749307 0.901963 0.216605
0.790495 0.901963 0.216605
0.829475 0.901963 0.216605
0.866551 0.901963 0.216605
0.901963 0.901963 0.216605
0.935907 0.901963 0.216605
0.968541 0.901963 0.216605
1.000000 0.901963 0.216605
0.000000 0.935907 0.216605
0.216605 0.935907 0.216605
0.332129 0.935907 0.216605
0.418426 0.935907 0.216605
0.489940 0.935907 0.216605
0.552149 0.935907 0.216605
0.607825 0.935907 0.216605
0.658596 0.935907 0.216605
0.705515 0.935907 0.216605
0.749307 0.935907 0.216605
0.790495 0.935907 0.216605
0.829475 0.935907 0.216605
0.866551 0.935907 0.216605
0.901963 0.935907 0.216605
0.935907 0.935907 0.216605
0.968541 0.935907 0.216605
1.000000 0.935907 0.216605
0.000000 0.968541 0.216605
0.216605 0.968541 0.216605
0.332129 0.968541 0.216605
0.418426 0.968541 0.216605
0.489940 0.968541 0.216605
0.552149 0.968541 0.216605
0.607825 0.968541 0.216605
0.658596 0.968541 0.216605
0.705515 0.968541 0.216605
0.749307 0.968541 0.216605
0.790495 0.968541 0.216605
0.829475 0.968541 0.216605
0.866551 0.968541 0.216605
0.901963 0.968541 0.216605
0.935907 0.968541 0.216605
0.968541 0.968541 0.216605
1.000000 0.968541 0.216605
0.000000 1.000000 0.216605
0.216605 1.000000 0.216605
0.332129 1.000000 0.216605
0.418426 1.000000 0.216605
0.489940 1.000000 0.216605
0.552149 1.000000 0.216605
0.607825 1.000000 0.216605
0.658596 1.000000 0.216605
0.705515 1.000000 0.216605
0.749307 1.000000 0.216605
0.790495 1.000000 0.216605
0.829475 1.000000 0.216605
0.866551 1.000000 0.216605
0.901963 1.000000 0.216605
0.935907 1.000000 0.216605
0.968541 1.000000 0.216605
1.000000 1.000000 0.216605
0.000000 0.000000 0.332129
0.216605 0.000000 0.332129
0.332129 0.000000 0.332129
0.418426 0.000000 0.332129
0.489940 0.000000 0.332129
0.552149 0.000000 0.332129
0.607825 0.000000 0.332129
0.658596 0.000000 0.332129
0.705515 0.000000 0.332129
0.749307 0.000000 0.332129
0.790495 0.000000 0.332129
0.829475 0.000000 0.332129
0.866551 0.000000 0.332129
0.901963 0.000000 0.332129
0.935907 0.000000 0.332129
0.968541 0.000000 0.332129
1.000000 0.000000 0.332129
0.000000 0.216605 0.332129
0.216605 0.216605 0.332129
0.332129 0.216605 0.332129
0.418426 0.216605 0.332129
0.489940 0.216605 0.332129
0.552149 0.216605 0.332129
0.607825 0.216605 0.332129
0.658596 0.216605 0.332129
0.705515 0.216605 0.332129
0.749307 0.216605 0.332129
0.790495 0.216605 0.332129
0.829475 0.216605 0.332129
0.866551 0.216605 0.332129
0.901963 0.216605 0.332129
0.935907 0.216605 0.332129
0.968541 0.216605 0.332129
1.000000 0.216605 0.332129
0.000000 0.332129 0.332129
0.216605 0.332129 0.332129
0.332129 0.332129 0.332129
0.418426 0.332129 0.332129
0.489940 0.332129 0.332129
0.552149 0.332129 0.332129
0.607825 0.332129 0.332129
0.658596 0.332129 0.332129
0.705515 0.332129 0.332129
0.749307 0.332129 0.332129
0.790495 0.332129 0.332129
0.829475 0.332129 0.332129
0.866551 0.332129 0.332129
0.901963 0.332129 0.332129
0.935907 0.332129 0.332129
0.968541 0.332129 0.332129
1.000000 0.332129 0.332129
0.000000 0.418426 0.332129
0.216605 0.418426 0.332129
0.332129 0.418426 0.332129
0.418426 0.418426 0.332129
0.489940 0.418426 0.332129
0.552149 0.418426 0.332129
0.607825 0.418426 0.332129
0.658596 0.418426 0.332129
0.705515 0.418426 0.332129
0.749307 0.418426 0.332129
0.790495 0.418426 0.332129
0.829475 0.418426 0.332129
0.866551 0.418426 0.332129
0.901963 0.418426 0.332129
0.935907 0.418426 0.332129
0.968541 0.418426 0.332129
1.000000 0.418426 0.332129
0.000000 0.489940 0.332129
0.216605 0.489940 0.332129
0.332129 0.489940 0.332129
0.418426 0.489940 0.332129
0.489940 0.489940 0.332129
0.552149 0.489940 0.332129
0.607825 0.489940 0.332129
0.658596 0.489940 0.332129
0.705515 0.489940 0.332129
0.749307 0.489940 0.332129
0.790495 0.489940 0.332129
0.829475 0.489940 0.332129
0.866551 0.489940 0.332129
0.901963 0.489940 0.332129
0.935907 0.489940 0.332129
0.968541 0.489940 0.332129
1.000000 0.489940 0.332129
0.000000 0.552149 0.332129
0.216605 0.552149 0.332129
0.332129 0.552149 0.332129
0.418426 0.552149 0.332129
0.489940 0.552149 0.332129
0.552149 0.552149 0.332129
0.607825 0.552149 0.332129
0.658596 0.552149 0.332129
0.705515 0.552149 0.332129
0.749307 0.552149 0.332129
0.790495 0.552149 0.332129
0.829475 0.552149 0.332129
0.866551 0.552149 0.332129
0.901963 0.552149 0.332129
0.935907 0.552149 0.332129
0.968541 0.552149 0.332129
1.000000 0.552149 0.332129
0.000000 0.607825 0.332129
0.216605 0.607825 0.332129
0.332129 0.607825 0.332129
0.418426 0.607825 0.332129
0.489940 0.607825 0.332129
0.552149 0.607825 0.332129
0.607825 0.607825 0.332129
0.658596 0.607825 0.332129
0.705515 0.607825 0.332129
0.749307 0.607825 0.332129
0.790495 0.607825 0.332129
0.829475 0.607825 0.332129
0.866551 0.607825 0.332129
0.901963 0.607825 0.332129
0.935907 0.607825 0.332129
0.968541 0.607825 0.332129
1.000000 0.607825 0.332129
0.000000 0.658596 0.332129
0.216605 0.658596 0.332129
0.332129 0.658596 0.332129
0.418426 0.658596 0.332129
0.489940 0.658596 0.332129
0.552149 0.658596 0.332129
0.607825 0.658596 0.332129
0.658596 0.658596 0.332129
0.705515 0.658596 0.332129
0.749307 0.658596 0.332129
0.790495 0.658596 0.332129
0.829475 0.658596 0.332129
0.866551 0.658596 0.332129
0.901963 0.658596 0.332129
0.935907 0.658596 0.332129
0.968541 0.658596 0.332129
1.000000 0.658596 0.332129
0.000000 0.705515 0.332129
0.216605 0.705515 0.332129
0.332129 0.705515 0.332129
0.418426 0.705515 0.332129
0.489940 0.705515 0.332129
0.552149 0.705515 0.332129
0.607825 0.705515 0.332129
0.658596 0.705515 0.332129
0.705515 0.705515 0.332129
0.749307 0.705515 0.332129
0.790495 0.705515 0.332129
0.829475 0.705515 0.332129
0.866551 0.705515 0.332129
0.901963 0.705515 0.332129
0.935907 0.705515 0.332129
0.968541 0.705515 0.332129
1.000000 0.705515 0.332129
0.000000 0.749307 0.332129
0.216605 0.749307 0.332129
0.332129 0.749307 0.332129
0.418426 0.749307 0.332129
0.489940 0.749307 0.332129
0.552149 0.749307 0.332129
0.607825 0.749307 0.332129
0.658596 0.749307 0.332129
0.705515 0.749307 0.332129
0.749307 0.749307 0.332129
0.790495 0.749307 0.332129
0.829475 0.749307 0.332129
0.866551 0.749307 0.332129
0.901963 0.749307 0.332129
0.935907 0.749307 0.332129
0.968541 0.749307 0.332129
1.000000 0.749307 0.332129
0.000000 0.790495 0.332129
0.216605 0.790495 0.332129
0.332129 0.790495 0.332129
0.418426 0.790495 0.332129
0.489940 0.790495 0.332129
0.552149 0.790495 0.332129
0.607825 0.790495 0.332129
0.658596 0.790495 0.332129
0.705515 0.790495 0.332129
0.749307 0.790495 0.332129
0.790495 0.790495 0.332129
0.829475 0.790495 0.332129
0.866551 0.790495 0.332129
0.901963 0.790495 0.332129
0.935907 0.790495 0.332129
0.968541 0.790495 0.332129
1.000000 0.790495 0.332129
0.000000 0.829475 0.332129
0.216605 0.829475 0.332129
0.332129 0.829475 0.332129
0.418426 0.829475 0.332129
0.489940 0.829475 0.332129
0.552149 0.829475 0.332129
0.607825 0.829475 0.332129
0.658596 0.829475 0.332129
0.705515 0.829475 0.332129
0.749307 0.829475 0.332129
0.790495 0.829475 0.332129
0.829475 0.829475 0.332129
0.866551 0.829475 0.332129
0.901963 0.829475 0.332129
0.935907 0.829475 0.332129
0.968541 0.829475 0.332129
1.000000 0.829475 0.332129
0.000000 0.866551 0.332129
0.216605 0.866551 0.332129
0.332129 0.866551 0.332129
0.418426 0.866551 0.332129
0.489940 0.866551 0.332129
0.552149 0.866551 0.332129
0.607825 0.866551 0.332129
0.658596 0.866551 0.332129
0.705515 0.866551 0.332129
0.749307 0.866551 0.332129
0.790495 0.866551 0.332129
0.829475 0.866551 0.332129
0.866551 0.866551 0.332129
0.901963 0.866551 0.332129
0.935907 0.866551 0.332129
0.968541 0.866551 0.332129
1.000000 0.866551 0.332129
0.000000 0.901963 0.332129
0.216605 0.901963 0.332129
0.332129 0.901963 0.332129
0.418426 0.901963 0.332129
0.489940 0.901963 0.332129
0.552149 0.901963 0.332129
0.607825 0.901963 0.332129
0.658596 0.901963 0.332129
0.705515 0.901963 0.332129
0.749307 0.901963 0.332129
0.790495 0.901963 0.332129
0.829475 0.901963 0.332129
0.866551 0.901963 0.332129
0.901963 0.901963 0.332129
0.935907 0.901963 0.332129
0.968541 0.901963 0.332129
1.000000 0.901963 0.332129
0.000000 0.935907 0.332129
0.216605 0.935907 0.332129
0.332129 0.935907 0.332129
0.418426 0.935907 0.332129
0.489940 0.935907 0.332129
0.552149 0.935907 0.332129
0.607825 0.935907 0.332129
0.658596 0.935907 0.332129
0.705515 0.935907 0.332129
0.749307 0.935907 0.332129
0.790495 0.935907 0.332129
0.829475 0.935907 0.332129
0.866551 0.935907 0.332129
0.901963 0.935907 0.332129
0.935907 0.935907 0.332129
0.968541 0.935907 0.332129
1.000000 0.935907 0.332129
0.000000 0.968541 0.332129
0.216605 0.968541 0.332129
0.332129 0.968541 0.332129
0.418426 0.968541 0.332129
0.489940 0.968541 0.332129
0.552149 0.968541 0.332129
0.607825 0.968541 0.332129
0.658596 0.968541 0.332129
0.705515 0.968541 0.332129
0.749307 0.968541 0.332129
0.790495 0.968541 0.332129
0.829475 0.968541 0.332129
0.866551 0.968541 0.332129
0.901963 0.968541 0.332129
0.935907 0.968541 0.332129
0.968541 0.968541 0.332129
1.000000 0.968541 0.332129
0.000000 1.000000 0.332129
0.216605 1.000000 0.332129
0.332129 1.000000 0.332129
0.418426 1.000000 0.332129
0.489940 1.000000 0.332129
0.552149 1.000000 0.332129
0.607825 1.000000 0.332129
0.658596 1.000000 0.332129
0.705515 1.000000 0.332129
0.749307 1.000000 0.332129
0.790495 1.000000 0.332129
0.829475 1.000000 0.332129
0.866551 1.000000 0.332129
0.901963 1.000000 0.332129
0.935907 1.000000 0.332129
0.968541 1.000000 0.332129
1.000000 1.000000 0.332129
0.000000 0.000000 0.418426
0.216605 0.000000 0.418426
0.332129 0.000000 0.418426
0.418426 0.000000 0.418426
0.489940 0.000000 0.418426
0.552149 0.000000 0.418426
0.607825 0.000000 0.418426
0.658596 0.000000 0.418426
0.705515 0.000000 0.418426
0.749307 0.000000 0.418426
0.790495 0.000000 0.418426
0.829475 0.000000 0.418426
0.866551 0.000000 0.418426
0.901963 0.000000 0.418426
0.935907 0.000000 0.418426
0.968541 0.000000 0.418426
1.000000 0.000000 0.418426
0.000000 0.216605 0.418426
0.216605 0.216605 0.418426
