tools/fcr-reference/vectors/lut_rec709.cube
TITLE "rec709"
LUT_3D_SIZE 5
DOMAIN_MIN 0.0 0.0 0.0
DOMAIN_MAX 1.0 1.0 1.0
0.000000 0.000000 0.000000
0.489940 0.000000 0.000000
0.705515 0.000000 0.000000
0.866551 0.000000 0.000000
1.000000 0.000000 0.000000
0.000000 0.489940 0.000000
0.489940 0.489940 0.000000
0.705515 0.489940 0.000000
0.866551 0.489940 0.000000
1.000000 0.489940 0.000000
0.000000 0.705515 0.000000
0.489940 0.705515 0.000000
0.705515 0.705515 0.000000
0.866551 0.705515 0.000000
1.000000 0.705515 0.000000
0.000000 0.866551 0.000000
0.489940 0.866551 0.000000
0.705515 0.866551 0.000000
0.866551 0.866551 0.000000
1.000000 0.866551 0.000000
0.000000 1.000000 0.000000
0.489940 1.000000 0.000000
0.705515 1.000000 0.000000
0.866551 1.000000 0.000000
1.000000 1.000000 0.000000
0.000000 0.000000 0.489940
0.489940 0.000000 0.489940
0.705515 0.000000 0.489940
0.866551 0.000000 0.489940
1.000000 0.000000 0.489940
0.000000 0.489940 0.489940
0.489940 0.489940 0.489940
0.705515 0.489940 0.489940
0.866551 0.489940 0.489940
1.000000 0.489940 0.489940
0.000000 0.705515 0.489940
0.489940 0.705515 0.489940
0.705515 0.705515 0.489940
0.866551 0.705515 0.489940
1.000000 0.705515 0.489940
0.000000 0.866551 0.489940
0.489940 0.866551 0.489940
0.705515 0.866551 0.489940
0.866551 0.866551 0.489940
1.000000 0.866551 0.489940
0.000000 1.000000 0.489940
0.489940 1.000000 0.489940
0.705515 1.000000 0.489940
0.866551 1.000000 0.489940
1.000000 1.000000 0.489940
0.000000 0.000000 0.705515
0.489940 0.000000 0.705515
0.705515 0.000000 0.705515
0.866551 0.000000 0.705515
1.000000 0.000000 0.705515
0.000000 0.489940 0.705515
0.489940 0.489940 0.705515
0.705515 0.489940 0.705515
0.866551 0.489940 0.705515
1.000000 0.489940 0.705515
0.000000 0.705515 0.705515
0.489940 0.705515 0.705515
0.705515 0.705515 0.705515
0.866551 0.705515 0.705515
1.000000 0.705515 0.705515
0.000000 0.866551 0.705515
0.489940 0.866551 0.705515
0.705515 0.866551 0.705515
0.866551 0.866551 0.705515
1.000000 0.866551 0.705515
0.000000 1.000000 0.705515
0.489940 1.000000 0.705515
0.705515 1.000000 0.705515
0.866551 1.000000 0.705515
1.000000 1.000000 0.705515
0.000000 0.000000 0.866551
0.489940 0.000000 0.866551
0.705515 0.000000 0.866551
0.866551 0.000000 0.866551
1.000000 0.000000 0.866551
0.000000 0.489940 0.866551
0.489940 0.489940 0.866551
0.705515 0.489940 0.866551
0.866551 0.489940 0.866551
1.000000 0.489940 0.866551
0.000000 0.705515 0.866551
0.489940 0.705515 0.866551
0.705515 0.705515 0.866551
0.866551 0.705515 0.866551
1.000000 0.705515 0.866551
0.000000 0.866551 0.866551
0.489940 0.866551 0.866551
0.705515 0.866551 0.866551
0.866551 0.866551 0.866551
1.000000 0.866551 0.866551
0.000000 1.000000 0.866551
0.489940 1.000000 0.866551
0.705515 1.000000 0.866551
0.866551 1.000000 0.866551
1.000000 1.000000 0.866551
0.000000 0.000000 1.000000
0.489940 0.000000 1.000000
0.705515 0.000000 1.000000
0.866551 0.000000 1.000000
1.000000 0.000000 1.000000
0.000000 0.489940 1.000000
0.489940 0.489940 1.000000
0.705515 0.489940 1.000000
0.866551 0.489940 1.000000
1.000000 0.489940 1.000000
0.000000 0.705515 1.000000
0.489940 0.705515 1.000000
0.705515 0.705515 1.000000
0.866551 0.705515 1.000000
1.000000 0.705515 1.000000
0.000000 0.866551 1.000000
0.489940 0.866551 1.000000
0.705515 0.866551 1.000000
0.866551 0.866551 1.000000
1.000000 0.866551 1.000000
0.000000 1.000000 1.000000
0.489940 1.000000 1.000000
0.705515 1.000000 1.000000
0.866551 1.000000 1.000000
1.000000 1.000000 1.000000
