tools/fcr-reference/vectors/lut_rec709.cube
TITLE "rec709"
LUT_3D_SIZE 9
DOMAIN_MIN 0.0 0.0 0.0
DOMAIN_MAX 1.0 1.0 1.0
0.000000 0.000000 0.000000
0.332129 0.000000 0.000000
0.489940 0.000000 0.000000
0.607825 0.000000 0.000000
0.705515 0.000000 0.000000
0.790495 0.000000 0.000000
0.866551 0.000000 0.000000
0.935907 0.000000 0.000000
1.000000 0.000000 0.000000
0.000000 0.332129 0.000000
0.332129 0.332129 0.000000
0.489940 0.332129 0.000000
0.607825 0.332129 0.000000
0.705515 0.332129 0.000000
0.790495 0.332129 0.000000
0.866551 0.332129 0.000000
0.935907 0.332129 0.000000
1.000000 0.332129 0.000000
0.000000 0.489940 0.000000
0.332129 0.489940 0.000000
0.489940 0.489940 0.000000
0.607825 0.489940 0.000000
0.705515 0.489940 0.000000
0.790495 0.489940 0.000000
0.866551 0.489940 0.000000
0.935907 0.489940 0.000000
1.000000 0.489940 0.000000
0.000000 0.607825 0.000000
0.332129 0.607825 0.000000
0.489940 0.607825 0.000000
0.607825 0.607825 0.000000
0.705515 0.607825 0.000000
0.790495 0.607825 0.000000
0.866551 0.607825 0.000000
0.935907 0.607825 0.000000
1.000000 0.607825 0.000000
0.000000 0.705515 0.000000
0.332129 0.705515 0.000000
0.489940 0.705515 0.000000
0.607825 0.705515 0.000000
0.705515 0.705515 0.000000
0.790495 0.705515 0.000000
0.866551 0.705515 0.000000
0.935907 0.705515 0.000000
1.000000 0.705515 0.000000
0.000000 0.790495 0.000000
0.332129 0.790495 0.000000
0.489940 0.790495 0.000000
0.607825 0.790495 0.000000
0.705515 0.790495 0.000000
0.790495 0.790495 0.000000
0.866551 0.790495 0.000000
0.935907 0.790495 0.000000
1.000000 0.790495 0.000000
0.000000 0.866551 0.000000
0.332129 0.866551 0.000000
0.489940 0.866551 0.000000
0.607825 0.866551 0.000000
0.705515 0.866551 0.000000
0.790495 0.866551 0.000000
0.866551 0.866551 0.000000
0.935907 0.866551 0.000000
1.000000 0.866551 0.000000
0.000000 0.935907 0.000000
0.332129 0.935907 0.000000
0.489940 0.935907 0.000000
0.607825 0.935907 0.000000
0.705515 0.935907 0.000000
0.790495 0.935907 0.000000
0.866551 0.935907 0.000000
0.935907 0.935907 0.000000
1.000000 0.935907 0.000000
0.000000 1.000000 0.000000
0.332129 1.000000 0.000000
0.489940 1.000000 0.000000
0.607825 1.000000 0.000000
0.705515 1.000000 0.000000
0.790495 1.000000 0.000000
0.866551 1.000000 0.000000
0.935907 1.000000 0.000000
1.000000 1.000000 0.000000
0.000000 0.000000 0.332129
0.332129 0.000000 0.332129
0.489940 0.000000 0.332129
0.607825 0.000000 0.332129
0.705515 0.000000 0.332129
0.790495 0.000000 0.332129
0.866551 0.000000 0.332129
0.935907 0.000000 0.332129
1.000000 0.000000 0.332129
0.000000 0.332129 0.332129
0.332129 0.332129 0.332129
0.489940 0.332129 0.332129
0.607825 0.332129 0.332129
0.705515 0.332129 0.332129
0.790495 0.332129 0.332129
0.866551 0.332129 0.332129
0.935907 0.332129 0.332129
1.000000 0.332129 0.332129
0.000000 0.489940 0.332129
0.332129 0.489940 0.332129
0.489940 0.489940 0.332129
0.607825 0.489940 0.332129
0.705515 0.489940 0.332129
0.790495 0.489940 0.332129
0.866551 0.489940 0.332129
0.935907 0.489940 0.332129
1.000000 0.489940 0.332129
0.000000 0.607825 0.332129
0.332129 0.607825 0.332129
0.489940 0.607825 0.332129
0.607825 0.607825 0.332129
0.705515 0.607825 0.332129
0.790495 0.607825 0.332129
0.866551 0.607825 0.332129
0.935907 0.607825 0.332129
1.000000 0.607825 0.332129
0.000000 0.705515 0.332129
0.332129 0.705515 0.332129
0.489940 0.705515 0.332129
0.607825 0.705515 0.332129
0.705515 0.705515 0.332129
0.790495 0.705515 0.332129
0.866551 0.705515 0.332129
0.935907 0.705515 0.332129
1.000000 0.705515 0.332129
0.000000 0.790495 0.332129
0.332129 0.790495 0.332129
0.489940 0.790495 0.332129
0.607825 0.790495 0.332129
0.705515 0.790495 0.332129
0.790495 0.790495 0.332129
0.866551 0.790495 0.332129
0.935907 0.790495 0.332129
1.000000 0.790495 0.332129
0.000000 0.866551 0.332129
0.332129 0.866551 0.332129
0.489940 0.866551 0.332129
0.607825 0.866551 0.332129
0.705515 0.866551 0.332129
0.790495 0.866551 0.332129
0.866551 0.866551 0.332129
0.935907 0.866551 0.332129
1.000000 0.866551 0.332129
0.000000 0.935907 0.332129
0.332129 0.935907 0.332129
0.489940 0.935907 0.332129
0.607825 0.935907 0.332129
0.705515 0.935907 0.332129
0.790495 0.935907 0.332129
0.866551 0.935907 0.332129
0.935907 0.935907 0.332129
1.000000 0.935907 0.332129
0.000000 1.000000 0.332129
0.332129 1.000000 0.332129
0.489940 1.000000 0.332129
0.607825 1.000000 0.332129
0.705515 1.000000 0.332129
0.790495 1.000000 0.332129
0.866551 1.000000 0.332129
0.935907 1.000000 0.332129
1.000000 1.000000 0.332129
0.000000 0.000000 0.489940
0.332129 0.000000 0.489940
0.489940 0.000000 0.489940
0.607825 0.000000 0.489940
0.705515 0.000000 0.489940
0.790495 0.000000 0.489940
0.866551 0.000000 0.489940
0.935907 0.000000 0.489940
1.000000 0.000000 0.489940
0.000000 0.332129 0.489940
0.332129 0.332129 0.489940
0.489940 0.332129 0.489940
0.607825 0.332129 0.489940
0.705515 0.332129 0.489940
0.790495 0.332129 0.489940
0.866551 0.332129 0.489940
0.935907 0.332129 0.489940
1.000000 0.332129 0.489940
0.000000 0.489940 0.489940
0.332129 0.489940 0.489940
0.489940 0.489940 0.489940
0.607825 0.489940 0.489940
0.705515 0.489940 0.489940
0.790495 0.489940 0.489940
0.866551 0.489940 0.489940
0.935907 0.489940 0.489940
1.000000 0.489940 0.489940
0.000000 0.607825 0.489940
0.332129 0.607825 0.489940
0.489940 0.607825 0.489940
0.607825 0.607825 0.489940
0.705515 0.607825 0.489940
0.790495 0.607825 0.489940
0.866551 0.607825 0.489940
0.935907 0.607825 0.489940
1.000000 0.607825 0.489940
0.000000 0.705515 0.489940
0.332129 0.705515 0.489940
0.489940 0.705515 0.489940
0.607825 0.705515 0.489940
0.705515 0.705515 0.489940
0.790495 0.705515 0.489940
0.866551 0.705515 0.489940
0.935907 0.705515 0.489940
1.000000 0.705515 0.489940
0.000000 0.790495 0.489940
0.332129 0.790495 0.489940
0.489940 0.790495 0.489940
0.607825 0.790495 0.489940
0.705515 0.790495 0.489940
0.790495 0.790495 0.489940
0.866551 0.790495 0.489940
0.935907 0.790495 0.489940
1.000000 0.790495 0.489940
0.000000 0.866551 0.489940
0.332129 0.866551 0.489940
0.489940 0.866551 0.489940
0.607825 0.866551 0.489940
0.705515 0.866551 0.489940
0.790495 0.866551 0.489940
0.866551 0.866551 0.489940
0.935907 0.866551 0.489940
1.000000 0.866551 0.489940
0.000000 0.935907 0.489940
0.332129 0.935907 0.489940
0.489940 0.935907 0.489940
0.607825 0.935907 0.489940
0.705515 0.935907 0.489940
0.790495 0.935907 0.489940
0.866551 0.935907 0.489940
0.935907 0.935907 0.489940
1.000000 0.935907 0.489940
0.000000 1.000000 0.489940
0.332129 1.000000 0.489940
0.489940 1.000000 0.489940
0.607825 1.000000 0.489940
0.705515 1.000000 0.489940
0.790495 1.000000 0.489940
0.866551 1.000000 0.489940
0.935907 1.000000 0.489940
1.000000 1.000000 0.489940
0.000000 0.000000 0.607825
0.332129 0.000000 0.607825
0.489940 0.000000 0.607825
0.607825 0.000000 0.607825
0.705515 0.000000 0.607825
0.790495 0.000000 0.607825
0.866551 0.000000 0.607825
0.935907 0.000000 0.607825
1.000000 0.000000 0.607825
0.000000 0.332129 0.607825
0.332129 0.332129 0.607825
0.489940 0.332129 0.607825
0.607825 0.332129 0.607825
0.705515 0.332129 0.607825
0.790495 0.332129 0.607825
0.866551 0.332129 0.607825
0.935907 0.332129 0.607825
1.000000 0.332129 0.607825
0.000000 0.489940 0.607825
0.332129 0.489940 0.607825
0.489940 0.489940 0.607825
0.607825 0.489940 0.607825
0.705515 0.489940 0.607825
0.790495 0.489940 0.607825
0.866551 0.489940 0.607825
0.935907 0.489940 0.607825
1.000000 0.489940 0.607825
0.000000 0.607825 0.607825
0.332129 0.607825 0.607825
0.489940 0.607825 0.607825
0.607825 0.607825 0.607825
0.705515 0.607825 0.607825
0.790495 0.607825 0.607825
0.866551 0.607825 0.607825
0.935907 0.607825 0.607825
1.000000 0.607825 0.607825
0.000000 0.705515 0.607825
0.332129 0.705515 0.607825
0.489940 0.705515 0.607825
0.607825 0.705515 0.607825
0.705515 0.705515 0.607825
0.790495 0.705515 0.607825
0.866551 0.705515 0.607825
0.935907 0.705515 0.607825
1.000000 0.705515 0.607825
0.000000 0.790495 0.607825
0.332129 0.790495 0.607825
0.489940 0.790495 0.607825
0.607825 0.790495 0.607825
0.705515 0.790495 0.607825
0.790495 0.790495 0.607825
0.866551 0.790495 0.607825
0.935907 0.790495 0.607825
1.000000 0.790495 0.607825
0.000000 0.866551 0.607825
0.332129 0.866551 0.607825
0.489940 0.866551 0.607825
0.607825 0.866551 0.607825
0.705515 0.866551 0.607825
0.790495 0.866551 0.607825
0.866551 0.866551 0.607825
0.935907 0.866551 0.607825
1.000000 0.866551 0.607825
0.000000 0.935907 0.607825
0.332129 0.935907 0.607825
0.489940 0.935907 0.607825
0.607825 0.935907 0.607825
0.705515 0.935907 0.607825
0.790495 0.935907 0.607825
0.866551 0.935907 0.607825
0.935907 0.935907 0.607825
1.000000 0.935907 0.607825
0.000000 1.000000 0.607825
0.332129 1.000000 0.607825
0.489940 1.000000 0.607825
0.607825 1.000000 0.607825
0.705515 1.000000 0.607825
0.790495 1.000000 0.607825
0.866551 1.000000 0.607825
0.935907 1.000000 0.607825
1.000000 1.000000 0.607825
0.000000 0.000000 0.705515
0.332129 0.000000 0.705515
0.489940 0.000000 0.705515
0.607825 0.000000 0.705515
0.705515 0.000000 0.705515
0.790495 0.000000 0.705515
0.866551 0.000000 0.705515
0.935907 0.000000 0.705515
1.000000 0.000000 0.705515
0.000000 0.332129 0.705515
0.332129 0.332129 0.705515
0.489940 0.332129 0.705515
0.607825 0.332129 0.705515
0.705515 0.332129 0.705515
0.790495 0.332129 0.705515
0.866551 0.332129 0.705515
0.935907 0.332129 0.705515
1.000000 0.332129 0.705515
0.000000 0.489940 0.705515
0.332129 0.489940 0.705515
0.489940 0.489940 0.705515
0.607825 0.489940 0.705515
0.705515 0.489940 0.705515
0.790495 0.489940 0.705515
0.866551 0.489940 0.705515
0.935907 0.489940 0.705515
1.000000 0.489940 0.705515
0.000000 0.607825 0.705515
0.332129 0.607825 0.705515
0.489940 0.607825 0.705515
0.607825 0.607825 0.705515
0.705515 0.607825 0.705515
0.790495 0.607825 0.705515
0.866551 0.607825 0.705515
0.935907 0.607825 0.705515
1.000000 0.607825 0.705515
0.000000 0.705515 0.705515
0.332129 0.705515 0.705515
0.489940 0.705515 0.705515
0.607825 0.705515 0.705515
0.705515 0.705515 0.705515
0.790495 0.705515 0.705515
0.866551 0.705515 0.705515
0.935907 0.705515 0.705515
1.000000 0.705515 0.705515
0.000000 0.790495 0.705515
0.332129 0.790495 0.705515
0.489940 0.790495 0.705515
0.607825 0.790495 0.705515
0.705515 0.790495 0.705515
0.790495 0.790495 0.705515
0.866551 0.790495 0.705515
0.935907 0.790495 0.705515
1.000000 0.790495 0.705515
0.000000 0.866551 0.705515
0.332129 0.866551 0.705515
0.489940 0.866551 0.705515
0.607825 0.866551 0.705515
0.705515 0.866551 0.705515
0.790495 0.866551 0.705515
0.866551 0.866551 0.705515
0.935907 0.866551 0.705515
1.000000 0.866551 0.705515
0.000000 0.935907 0.705515
0.332129 0.935907 0.705515
0.489940 0.935907 0.705515
0.607825 0.935907 0.705515
0.705515 0.935907 0.705515
0.790495 0.935907 0.705515
0.866551 0.935907 0.705515
0.935907 0.935907 0.705515
1.000000 0.935907 0.705515
0.000000 1.000000 0.705515
0.332129 1.000000 0.705515
0.489940 1.000000 0.705515
0.607825 1.000000 0.705515
0.705515 1.000000 0.705515
0.790495 1.000000 0.705515
0.866551 1.000000 0.705515
0.935907 1.000000 0.705515
1.000000 1.000000 0.705515
0.000000 0.000000 0.790495
0.332129 0.000000 0.790495
0.489940 0.000000 0.790495
0.607825 0.000000 0.790495
0.705515 0.000000 0.790495
0.790495 0.000000 0.790495
0.866551 0.000000 0.790495
0.935907 0.000000 0.790495
1.000000 0.000000 0.790495
0.000000 0.332129 0.790495
0.332129 0.332129 0.790495
0.489940 0.332129 0.790495
0.607825 0.332129 0.790495
0.705515 0.332129 0.790495
0.790495 0.332129 0.790495
0.866551 0.332129 0.790495
0.935907 0.332129 0.790495
1.000000 0.332129 0.790495
0.000000 0.489940 0.790495
0.332129 0.489940 0.790495
0.489940 0.489940 0.790495
0.607825 0.489940 0.790495
0.705515 0.489940 0.790495
0.790495 0.489940 0.790495
0.866551 0.489940 0.790495
0.935907 0.489940 0.790495
1.000000 0.489940 0.790495
0.000000 0.607825 0.790495
0.332129 0.607825 0.790495
0.489940 0.607825 0.790495
0.607825 0.607825 0.790495
0.705515 0.607825 0.790495
0.790495 0.607825 0.790495
0.866551 0.607825 0.790495
0.935907 0.607825 0.790495
1.000000 0.607825 0.790495
0.000000 0.705515 0.790495
0.332129 0.705515 0.790495
0.489940 0.705515 0.790495
0.607825 0.705515 0.790495
0.705515 0.705515 0.790495
0.790495 0.705515 0.790495
0.866551 0.705515 0.790495
0.935907 0.705515 0.790495
1.000000 0.705515 0.790495
0.000000 0.790495 0.790495
0.332129 0.790495 0.790495
0.489940 0.790495 0.790495
0.607825 0.790495 0.790495
0.705515 0.790495 0.790495
0.790495 0.790495 0.790495
0.866551 0.790495 0.790495
0.935907 0.790495 0.790495
1.000000 0.790495 0.790495
0.000000 0.866551 0.790495
0.332129 0.866551 0.790495
0.489940 0.866551 0.790495
0.607825 0.866551 0.790495
0.705515 0.866551 0.790495
0.790495 0.866551 0.790495
0.866551 0.866551 0.790495
0.935907 0.866551 0.790495
1.000000 0.866551 0.790495
0.000000 0.935907 0.790495
0.332129 0.935907 0.790495
0.489940 0.935907 0.790495
0.607825 0.935907 0.790495
0.705515 0.935907 0.790495
0.790495 0.935907 0.790495
0.866551 0.935907 0.790495
0.935907 0.935907 0.790495
1.000000 0.935907 0.790495
0.000000 1.000000 0.790495
0.332129 1.000000 0.790495
0.489940 1.000000 0.790495
0.607825 1.000000 0.790495
0.705515 1.000000 0.790495
0.790495 1.000000 0.790495
0.866551 1.000000 0.790495
0.935907 1.000000 0.790495
1.000000 1.000000 0.790495
0.000000 0.000000 0.866551
0.332129 0.000000 0.866551
0.489940 0.000000 0.866551
0.607825 0.000000 0.866551
0.705515 0.000000 0.866551
0.790495 0.000000 0.866551
0.866551 0.000000 0.866551
0.935907 0.000000 0.866551
1.000000 0.000000 0.866551
0.000000 0.332129 0.866551
0.332129 0.332129 0.866551
0.489940 0.332129 0.866551
0.607825 0.332129 0.866551
0.705515 0.332129 0.866551
0.790495 0.332129 0.866551
0.866551 0.332129 0.866551
0.935907 0.332129 0.866551
1.000000 0.332129 0.866551
0.000000 0.489940 0.866551
0.332129 0.489940 0.866551
0.489940 0.489940 0.866551
0.607825 0.489940 0.866551
0.705515 0.489940 0.866551
0.790495 0.489940 0.866551
0.866551 0.489940 0.866551
0.935907 0.489940 0.866551
1.000000 0.489940 0.866551
0.000000 0.607825 0.866551
0.332129 0.607825 0.866551
0.489940 0.607825 0.866551
0.607825 0.607825 0.866551
0.705515 0.607825 0.866551
0.790495 0.607825 0.866551
0.866551 0.607825 0.866551
0.935907 0.607825 0.866551
1.000000 0.607825 0.866551
0.000000 0.705515 0.866551
0.332129 0.705515 0.866551
0.489940 0.705515 0.866551
0.607825 0.705515 0.866551
0.705515 0.705515 0.866551
0.790495 0.705515 0.866551
0.866551 0.705515 0.866551
0.935907 0.705515 0.866551
1.000000 0.705515 0.866551
0.000000 0.790495 0.866551
0.332129 0.790495 0.866551
0.489940 0.790495 0.866551
0.607825 0.790495 0.866551
0.705515 0.790495 0.866551
0.790495 0.790495 0.866551
0.866551 0.790495 0.866551
0.935907 0.790495 0.866551
1.000000 0.790495 0.866551
0.000000 0.866551 0.866551
0.332129 0.866551 0.866551
0.489940 0.866551 0.866551
0.607825 0.866551 0.866551
0.705515 0.866551 0.866551
0.790495 0.866551 0.866551
0.866551 0.866551 0.866551
0.935907 0.866551 0.866551
1.000000 0.866551 0.866551
0.000000 0.935907 0.866551
0.332129 0.935907 0.866551
0.489940 0.935907 0.866551
0.607825 0.935907 0.866551
0.705515 0.935907 0.866551
0.790495 0.935907 0.866551
0.866551 0.935907 0.866551
0.935907 0.935907 0.866551
1.000000 0.935907 0.866551
0.000000 1.000000 0.866551
0.332129 1.000000 0.866551
0.489940 1.000000 0.866551
0.607825 1.000000 0.866551
0.705515 1.000000 0.866551
0.790495 1.000000 0.866551
0.866551 1.000000 0.866551
0.935907 1.000000 0.866551
1.000000 1.000000 0.866551
0.000000 0.000000 0.935907
0.332129 0.000000 0.935907
0.489940 0.000000 0.935907
0.607825 0.000000 0.935907
0.705515 0.000000 0.935907
0.790495 0.000000 0.935907
0.866551 0.000000 0.935907
0.935907 0.000000 0.935907
1.000000 0.000000 0.935907
0.000000 0.332129 0.935907
0.332129 0.332129 0.935907
0.489940 0.332129 0.935907
0.607825 0.332129 0.935907
0.705515 0.332129 0.935907
0.790495 0.332129 0.935907
0.866551 0.332129 0.935907
0.935907 0.332129 0.935907
1.000000 0.332129 0.935907
0.000000 0.489940 0.935907
0.332129 0.489940 0.935907
0.489940 0.489940 0.935907
0.607825 0.489940 0.935907
0.705515 0.489940 0.935907
0.790495 0.489940 0.935907
0.866551 0.489940 0.935907
0.935907 0.489940 0.935907
1.000000 0.489940 0.935907
0.000000 0.607825 0.935907
0.332129 0.607825 0.935907
0.489940 0.607825 0.935907
0.607825 0.607825 0.935907
0.705515 0.607825 0.935907
0.790495 0.607825 0.935907
0.866551 0.607825 0.935907
0.935907 0.607825 0.935907
1.000000 0.607825 0.935907
0.000000 0.705515 0.935907
0.332129 0.705515 0.935907
0.489940 0.705515 0.935907
0.607825 0.705515 0.935907
0.705515 0.705515 0.935907
0.790495 0.705515 0.935907
0.866551 0.705515 0.935907
0.935907 0.705515 0.935907
1.000000 0.705515 0.935907
0.000000 0.790495 0.935907
0.332129 0.790495 0.935907
0.489940 0.790495 0.935907
0.607825 0.790495 0.935907
0.705515 0.790495 0.935907
0.790495 0.790495 0.935907
0.866551 0.790495 0.935907
0.935907 0.790495 0.935907
1.000000 0.790495 0.935907
0.000000 0.866551 0.935907
0.332129 0.866551 0.935907
0.489940 0.866551 0.935907
0.607825 0.866551 0.935907
0.705515 0.866551 0.935907
0.790495 0.866551 0.935907
0.866551 0.866551 0.935907
0.935907 0.866551 0.935907
1.000000 0.866551 0.935907
0.000000 0.935907 0.935907
0.332129 0.935907 0.935907
0.489940 0.935907 0.935907
0.607825 0.935907 0.935907
0.705515 0.935907 0.935907
0.790495 0.935907 0.935907
0.866551 0.935907 0.935907
0.935907 0.935907 0.935907
1.000000 0.935907 0.935907
0.000000 1.000000 0.935907
0.332129 1.000000 0.935907
0.489940 1.000000 0.935907
0.607825 1.000000 0.935907
0.705515 1.000000 0.935907
0.790495 1.000000 0.935907
0.866551 1.000000 0.935907
0.935907 1.000000 0.935907
1.000000 1.000000 0.935907
0.000000 0.000000 1.000000
0.332129 0.000000 1.000000
0.489940 0.000000 1.000000
0.607825 0.000000 1.000000
0.705515 0.000000 1.000000
0.790495 0.000000 1.000000
0.866551 0.000000 1.000000
0.935907 0.000000 1.000000
1.000000 0.000000 1.000000
0.000000 0.332129 1.000000
0.332129 0.332129 1.000000
0.489940 0.332129 1.000000
0.607825 0.332129 1.000000
0.705515 0.332129 1.000000
0.790495 0.332129 1.000000
0.866551 0.332129 1.000000
0.935907 0.332129 1.000000
1.000000 0.332129 1.000000
0.000000 0.489940 1.000000
0.332129 0.489940 1.000000
0.489940 0.489940 1.000000
0.607825 0.489940 1.000000
0.705515 0.489940 1.000000
0.790495 0.489940 1.000000
0.866551 0.489940 1.000000
0.935907 0.489940 1.000000
1.000000 0.489940 1.000000
0.000000 0.607825 1.000000
0.332129 0.607825 1.000000
0.489940 0.607825 1.000000
0.607825 0.607825 1.000000
0.705515 0.607825 1.000000
0.790495 0.607825 1.000000
0.866551 0.607825 1.000000
0.935907 0.607825 1.000000
1.000000 0.607825 1.000000
0.000000 0.705515 1.000000
0.332129 0.705515 1.000000
0.489940 0.705515 1.000000
0.607825 0.705515 1.000000
0.705515 0.705515 1.000000
0.790495 0.705515 1.000000
0.866551 0.705515 1.000000
0.935907 0.705515 1.000000
1.000000 0.705515 1.000000
0.000000 0.790495 1.000000
0.332129 0.790495 1.000000
0.489940 0.790495 1.000000
0.607825 0.790495 1.000000
0.705515 0.790495 1.000000
0.790495 0.790495 1.000000
0.866551 0.790495 1.000000
0.935907 0.790495 1.000000
1.000000 0.790495 1.000000
0.000000 0.866551 1.000000
0.332129 0.866551 1.000000
0.489940 0.866551 1.000000
0.607825 0.866551 1.000000
0.705515 0.866551 1.000000
0.790495 0.866551 1.000000
0.866551 0.866551 1.000000
0.935907 0.866551 1.000000
1.000000 0.866551 1.000000
0.000000 0.935907 1.000000
0.332129 0.935907 1.000000
0.489940 0.935907 1.000000
0.607825 0.935907 1.000000
0.705515 0.935907 1.000000
0.790495 0.935907 1.000000
0.866551 0.935907 1.000000
0.935907 0.935907 1.000000
1.000000 0.935907 1.000000
0.000000 1.000000 1.000000
0.332129 1.000000 1.000000
0.489940 1.000000 1.000000
0.607825 1.000000 1.000000
0.705515 1.000000 1.000000
0.790495 1.000000 1.000000
0.866551 1.000000 1.000000
0.935907 1.000000 1.000000
1.000000 1.000000 1.000000
